img/discount/B2.svg

<svg width="50" height="64" viewBox="0 0 50 64" fill="none" xmlns="http://www.w3.org/2000/svg">
<path opacity="0.4" d="M43.0077 9.78592C42.2248 7.84787 40.8984 6.23165 39.0888 4.9194C37.2704 3.60072 34.9121 2.6347 32.0619 1.97792C29.1964 1.31762 25.6519 1 21.4632 1H2.0726H1.07296L1.0726 1.99964L1.07131 5.53923L1 5.53929L1.04356 58.184L1.05212 58.184L1.05082 61.7579L1.05045 62.7602L2.05279 62.7582L5.7625 62.7509L5.76318 62.7509C8.50971 62.7436 11.5196 62.7874 14.7792 62.8751C18.0565 62.9633 21.347 63 24.6502 63L24.652 63C28.8303 62.9926 32.4508 62.5618 35.4788 61.6779C38.4866 60.7998 40.9991 59.5587 42.9795 57.9208C44.9542 56.2874 46.4136 54.3142 47.3491 52.0013L47.3502 51.9986C48.267 49.7129 48.7143 47.2183 48.7143 44.5202C48.7143 42.3116 48.2975 40.2836 47.4463 38.4457C46.6073 36.6185 45.4067 35.0447 43.8545 33.7223C42.3083 32.405 40.4455 31.3461 38.2756 30.5421C37.2893 30.1767 36.2545 29.8664 35.171 29.6112C35.5681 29.4355 35.9576 29.2471 36.3396 29.046C37.938 28.2044 39.3163 27.1537 40.4731 25.8918L40.4751 25.8895C41.6353 24.616 42.534 23.1545 43.1795 21.4987C43.8329 19.8223 44.1479 17.99 44.1479 16.0147L44.1479 16.0113C44.1403 13.735 43.7666 11.6573 43.0077 9.78592ZM43.0077 9.78592C43.0078 9.78617 43.0079 9.78643 43.008 9.78669L42.0809 10.1611L43.0075 9.78533C43.0075 9.78553 43.0076 9.78572 43.0077 9.78592ZM11.5437 27.6L11.5238 7.02118L19.6564 7.01465L19.6583 7.01465C22.2546 7.00747 24.4018 7.22324 26.135 7.62556C27.8591 8.03477 29.2073 8.6381 30.2143 9.40299C31.2224 10.1761 31.9424 11.1222 32.3883 12.2504C32.848 13.4133 33.0951 14.8151 33.0951 16.4689C33.0951 18.2327 32.893 19.8002 32.4953 21.1811L32.4941 21.1855C32.1174 22.5159 31.4682 23.6332 30.5462 24.5635L30.5438 24.566C29.6455 25.4788 28.376 26.2275 26.6952 26.77C25.0343 27.306 22.8815 27.5934 20.2073 27.5934H20.2066L11.5437 27.6ZM37.5743 44.7033L37.5743 44.7069C37.5813 46.6604 37.3246 48.4012 36.8377 49.9375C36.3562 51.4268 35.586 52.6662 34.5206 53.6888C33.4592 54.7076 32.0457 55.5258 30.2496 56.1116L30.2463 56.1126C28.4681 56.6994 26.2433 57.0073 23.5468 57.0073C22.0473 57.0073 20.5404 57 19.0118 56.9854C17.4897 56.9708 16.1011 56.9345 14.8524 56.8765L14.8392 56.8759L14.826 56.8757C13.7037 56.8533 12.6158 56.8225 11.5656 56.7831L11.5455 33.622L21.1372 33.6154L21.1389 33.6154C24.1753 33.6082 26.7474 33.8466 28.8616 34.3168L28.8646 34.3175C30.9789 34.7807 32.6445 35.4772 33.9076 36.3754L33.9084 36.376C35.1594 37.2636 36.0713 38.3753 36.664 39.7205C37.257 41.0755 37.5743 42.7276 37.5743 44.7033Z" stroke="#FFD32E" stroke-width="2"/>
</svg>

<svg width="50" height="64" fill="none" xmlns="http://www.w3.org/2000/svg"><path opacity=".4" d="M43.008 9.786c-.783-1.938-2.11-3.554-3.92-4.867-1.818-1.318-4.176-2.284-7.026-2.941C29.196 1.318 25.652 1 21.463 1H1.073v1L1.07 5.54H1l.044 52.644h.008l-.001 3.574v1.002l1.002-.002 3.71-.007h0c2.747-.007 5.757.036 9.016.124 3.277.088 6.568.125 9.871.125h.002c4.178-.007 7.799-.438 10.827-1.322 3.008-.878 5.52-2.12 7.5-3.757 1.975-1.634 3.435-3.607 4.37-5.92L47.35 52c.917-2.286 1.364-4.78 1.364-7.479 0-2.208-.416-4.236-1.268-6.074a13.604 13.604 0 00-3.591-4.724c-1.547-1.317-3.41-2.376-5.58-3.18a26.255 26.255 0 00-3.104-.93 19.37 19.37 0 001.169-.566c1.598-.842 2.976-1.892 4.133-3.154l.002-.002a13.997 13.997 0 002.704-4.391c.654-1.677.969-3.509.969-5.484v-.004c-.008-2.276-.381-4.354-1.14-6.225zm0 0s0 0 0 0l-.927.375.926-.376s0 0 0 0zM11.544 27.6l-.02-20.579 8.132-.006h.002c2.597-.008 4.744.208 6.477.61 1.724.41 3.072 1.013 4.08 1.778 1.007.773 1.727 1.72 2.173 2.847.46 1.163.707 2.565.707 4.219 0 1.764-.202 3.331-.6 4.712v.005c-.378 1.33-1.027 2.447-1.949 3.378l-.002.002c-.899.913-2.168 1.662-3.849 2.204-1.66.536-3.814.823-6.488.823h0l-8.663.007zm26.03 17.103v.004c.007 1.953-.25 3.694-.736 5.23-.482 1.49-1.252 2.73-2.317 3.752-1.062 1.019-2.475 1.837-4.271 2.423h-.004c-1.778.587-4.003.895-6.7.895-1.499 0-3.006-.007-4.534-.022-1.522-.014-2.91-.05-4.16-.108l-.013-.001h-.013c-1.122-.023-2.21-.053-3.26-.093l-.02-23.161 9.591-.007h.002c3.036-.007 5.608.232 7.723.702h.003c2.114.464 3.78 1.16 5.043 2.058v.001c1.251.888 2.163 2 2.756 3.345.593 1.355.91 3.007.91 4.982z" stroke="#FFD32E" stroke-width="2"/></svg>
